lib/assets/images/close.svg

<svg width="12" height="12" viewBox="0 0 12 12" fill="none" xmlns="http://www.w3.org/2000/svg">
<path fill-rule="evenodd" clip-rule="evenodd" d="M4.67717 6.00004L0.530347 1.85322C0.237453 1.56033 0.237454 1.08546 0.530347 0.792564L0.792564 0.530347C1.08546 0.237453 1.56033 0.237453 1.85322 0.530347L6.00004 4.67717L10.1469 0.530424C10.4398 0.237535 10.9146 0.237538 11.2075 0.530429L11.4697 0.792646C11.7626 1.08554 11.7626 1.56042 11.4697 1.85331L7.32292 6.00004L11.4697 10.1468C11.7626 10.4397 11.7626 10.9146 11.4697 11.2075L11.2075 11.4697C10.9146 11.7626 10.4397 11.7626 10.1468 11.4697L6.00004 7.32292L1.85331 11.4697C1.56042 11.7625 1.08554 11.7625 0.792651 11.4697L0.530434 11.2074C0.237541 10.9145 0.23754 10.4397 0.530434 10.1468L4.67717 6.00004Z" fill="black"/>
</svg>

<svg width="12" height="12" fill="none" xmlns="http://www.w3.org/2000/svg"><path fill-rule="evenodd" clip-rule="evenodd" d="M4.677 6L.53 1.853a.75.75 0 0 1 0-1.06L.793.53a.75.75 0 0 1 1.06 0L6 4.677 10.147.53a.75.75 0 0 1 1.06 0l.263.263a.75.75 0 0 1 0 1.06L7.323 6l4.147 4.147a.75.75 0 0 1 0 1.06l-.263.263a.75.75 0 0 1-1.06 0L6 7.323 1.853 11.47a.75.75 0 0 1-1.06 0l-.263-.263a.75.75 0 0 1 0-1.06L4.677 6z" fill="#000"/></svg>
